X:1
T:Title
%%score { 1 | 2 }
L:1/8
M:3/4
K:Db
V:1 treble nm="Grand Piano"
V:2 bass 
V:1
 z2 z2 z[Q:1/4=100] [DF] | [FA]>[FA] [FA]3 [Fd] | [Gd]>[GB] [FA]3 [DF] | [FA]>[GB] [FA]3 [DF] | %4
[M:5/8] [DF]>[CE] [CE]3 |[M:1/8] [DF] |[M:3/4] [FA]>[FA] [FA]3 [FA] | B>B d3 B | %8
 [FA]>[GB] [FA]3 [A,D] |[M:5/8] [A,DF]>[K:bass][G,CE] [F,D]3 |[M:1/8][K:treble] [Fd] | %11
[M:3/4] d>d d3 B | [GB]>[FA] [FA]3 [FA] | [E=G]>[EA] [GB]3 [Gd] |[M:5/8] d>c c3 |[M:1/8] A | %16
[M:3/4] [Fd]>[Fd] [Fd]3 [DFA] | [DGB]>[DGd] [DFA]3 [A,DF] | [DFA]>[DGB] [DFA]3 [A,D] | %19
[M:5/8] [A,DF]>[K:bass][G,CE] [F,D]3 |] %20
V:2
 z2 z2 z [D,A,] | [D,D]>[D,D] [D,D]3 [D,A,] | [G,B,]>[G,D] [D,D]3 [D,A,] | %3
 [D,D]>[D,D] [D,D]3 [D,A,] |[M:5/8] [A,,A,]>[A,,A,] [A,,A,]3 |[M:1/8] [D,A,] | %6
[M:3/4] [D,D]>[D,D] [D,D]3 [D,D] | [G,DG]>[G,DG] [G,B,G]3 [G,DG] | [D,D]>[D,D] [D,D]3 F, | %9
[M:5/8] A,,>A,, D,3 |[M:1/8] [D,A,] |[M:3/4] [G,B,G]>[G,B,G] [G,B,G]3 [G,DG] | %12
 [D,D]>[D,D] [D,D]3 [D,D] | [E,D]>[E,C] [E,E]3 [E,E] |[M:5/8][K:treble] [A,EG]>[A,EG] [A,EG]3 | %15
[M:1/8] [A,CG] |[M:3/4][K:bass] [D,A,]>[D,A,] [D,A,]3 D, | G,,>B,, D,3 D, | D,>D, D,3 F, | %19
[M:5/8] A,,>A,, D,3 |] %20

